X:92
T:Dorchester March. LIT.092, The
M:2/2
Q:1/4=130
L:1/8
B:Wm. Litten MS, 1802
Z:Village Music Project 2017 Anne Wride
K:D
zD | F2 D>F A2 F>A | d2 A>d f2 d>f | a2 b>a g2f2 | e2e>e e2D2 |
F2 D>F A2 F>A | Bc de dc BA | Bb ag fe dc | d2 d>d d2 :|
|: A2 | d2 f>d B2d>B | AF dB AF ED | FA dc BA GF | E2 E>E E2D2 |
F2 D>F A2F>A | Bc de dc BA | Bb ag fe dc | d2 d>d d2 :|

